!!!OTL: WO FIND ICH DANN DEINS VATERS HAUS
!!!ARE: Europa, Mitteleuropa, Deutschland
!!!SCT: E0460
!!!YEM: Copyright 1995, estate of Helmut Schaffrath.
**kern
*ICvox
*Ivox
*M4/4
*k[f#]
*G:
{4d
=1
4g
4g
4g
4a
=2
4b
4cc#
2dd}
=3
{4.ee
8dd
4cc
4b
=4
2a
4b
4r}
=5
{4dd
4cc
4b
4a
=6
4.b
8b
4a}
{4a
=7
4dd
4cc
4b
4a
=8
4.b
8b
4a}
{4b
=9
2cc
4r
4ee
=10
2dd
4r}
{4dd
=11
4dd
4b
4a
4g
=12
2a
2a
=13
2.b}
==
!!!AGN: Liebes - Lied
!!!ONB: ESAC (Essen Associative Code) Database: ERK1
!!!AMT: simple quadruple
!!!AIN: vox
!!!EED: Helmut Schaffrath
!!!EEV: 1.0
*-
